X:1
T:Title
%%score { ( 1 4 ) | ( 2 3 ) }
L:1/8
Q:1/4=100
M:2/4
K:Eb
V:1 treble nm="Grand Piano"
V:4 treble 
V:2 bass 
V:3 bass 
V:1
 B2 cB | G2 G2 | [FA]2 [GB][FA] | [EG]4 | [DF]2 [DF][EG] | [DA]2 [Ec]2 | B2 =AA | [EB]4 | %8
w: W.~McDonald * *||||||||
 [Ge]2 [Ad]c | cB B2 | B2 cB | G4 | [DF]2 [DF][EG] |[M:5/8] [EA]>[EB] [Ec]3 | %14
w: ||||||
[M:2/4] B>G [A,DF][A,DF] | [G,B,E]4 |] %16
w: ||
V:2
 [E,G,E]2 [E,A,E][E,G,E] | [E,B,E]2 [E,B,E]2 | [B,,B,]2 [B,,B,][B,,B,] | [E,B,]4 | %4
 [B,,B,]2 [B,,B,][B,,B,] | [B,,B,]2 [B,,A,]2 | [E,G,E]2 [F,CD][F,B,D] | [B,,G,]4 | %8
 [E,B,]2 [E,B,][E,A,E] | [E,E]-[E,G,E] [E,G,E]2 | [E,G,E]2 [E,A,E][E,G,E] | [E,B,E]4 | %12
 [B,,B,]2 [B,,B,][E,B,] |[M:5/8] [C,A,]>[B,,G,] [A,,A,]3 |[M:2/4] G,2 z2 | E,4 |] %16
V:3
 x4 | x4 | x4 | x4 | x4 | x4 | x4 | x4 | x4 | .A,2 z2 | x4 | x4 | x4 |[M:5/8] x5 | %14
[M:2/4] B,,->[B,,B,] B,,B,, | x4 |] %16
V:4
 x4 | x4 | x4 | x4 | x4 | x4 | x4 | x4 | x4 | x4 | x4 | x4 | x4 |[M:5/8] x5 |[M:2/4] E2 z2 | x4 |] %16

